X: 1
T:Farmors Brudpolska
R:Polska
O:Sweden
M:3/4
C:e. Gyris Anders
A:\"Alvdalen
Z:Henrick Norbeck
N:I like Henrik's version better than my previous transcription, but have kept my ^c<d construction in the endings.
K:DDor
(3A2A2^c2 A>c|(3A2A2^c2 A>c| (3:2:5e2gage f>g|\
(3:2:6f/g/f/e/d3^c d>e|(3:2:5f2 fafd e>^c|
(3A2A2^c2 A>c|(3A2A2^c2 A>c|(3:2:5e2 gage f>g|\
(3:2:6f/g/f/e/ d3^c d>e|(3:2:5f2 fafd e^c| ^c<d d4::
(3a2a2b2 a>g|(3:2:5e2 gage f>g|\
(3a2a2c'2 a>g|(3:2:5e2 gage f>g|\
(3:2:6f/g/f/e/ d3^c d>e|(3:2:5f2 fafd e>^c|
(3A2A2^c2 A>c|(3A2A2^c2 A>c|\
(3:2:5e2 gage f>g|(3:2:6f/g/f/e/ d3^c d>e|\
(3:2:5f2 fafd e>^c|^c<d d4:|
